svgs/sharp-regular/forward-step.svg

<svg xmlns="http://www.w3.org/2000/svg" viewBox="0 0 320 512"><!--! Font Awesome Pro 6.6.0 by @fontawesome - https://fontawesome.com License - https://fontawesome.com/license (Commercial License) Copyright 2024 Fonticons, Inc. --><path d="M240 88l0-24 48 0 0 24 0 144 0 48 0 144 0 24-48 0 0-24 0-114.4L64 418.4 16 448l0-56.4 0-271.2L16 64 64 93.6 240 202.4 240 88zm-4.5 168L64 150.1l0 211.9L235.5 256z"/></svg>

<svg xmlns="http://www.w3.org/2000/svg" viewBox="0 0 320 512"><!--! Font Awesome Pro 6.4.0 by @fontawesome - https://fontawesome.com License - https://fontawesome.com/license (Commercial License) Copyright 2023 Fonticons, Inc. --><path d="M240 88V64h48V88 232v48V424v24H240V424 309.6L64 418.4 16 448V391.6 120.4 64L64 93.6 240 202.4V88zm-4.5 168L64 150.1V361.9L235.5 256z"/></svg>
